X:3072
T: Polska efter Knuter Jon
C: Knuter Jon
S: Utlärd av Jonas Hjalmarsson
Z: Karin Arén
M: 3/4
L: 1/8
K: Gm
v(D|:G)>B d2d2 | c>c f2(f2 | f)=e/f/ va>u(a g/a/)g/e/ |1 vf=e/f/ ud3 v^F :|2vf=e/f/ ud4 |:
vA>A d2 d>v(d|c/d/c/A/) B4 | v{BcB}(AB/c/) ud2 d>d |v(c/d/c/A/) u(B4 B/A/)vB/c/ |
v(3d2(A2B2) c>B | v(A<G) (B/c/)B/A/ G>^F | v(^F<G) uG4 :|
(:musicend:)


(:music:)
